X:1
T:Skye Dance I
C:Alasdair Fraser
S:San Francisco Scottish Fiddlers Tune of the month, 10/90
Z:Steve Wyrick  2004-8-17 scots-l
L:1/8
M:C
K:A
|:"A"A2 eA c2 BA|"G"B2 BB "D"d2 f2|"A"A2 eA c2 BA|"G"B2 BB    dA "A"Ae:|
|:"A"ae ed c2 BA|"A"AA eA    c2 e2|"A"ae ed c2 BA|"G"B2 BB "D"dA "A"Ae:|
